X:4349
T:Montagnarde de Rochefort
O:england
C:Les Brayauds: Couleurs
M:3/8
L:1/8
K:C
e|ed/e/d/B/|c2d|e/f/gf|ede|\
ed/e/d/B/|c2d|e/f/ge|d2:|
|:G|gg/f/g/a/|e2d|ee/d/e/f/|geG|\
gg/f/g/a/|e2d|ee/f/e/d/|c2:|


